svgs/thin/closed-captioning-slash.svg

<svg xmlns="http://www.w3.org/2000/svg" viewBox="0 0 640 512"><!--! Font Awesome Pro 6.3.0 by @fontawesome - https://fontawesome.com License - https://fontawesome.com/license (Commercial License) Copyright 2023 Fonticons, Inc. --><path d="M544 48c26.47 0 48 21.53 48 48v284.2l16 12.72V95.1c0-35.35-28.65-64-64-64L153.9 32l20.13 16H544zM96 464c-26.47 0-48-21.53-48-48V131.8L32 119.1v296.9c0 35.35 28.65 64 64 64L486.1 480l-20.13-16H96zM364.1 188.1c-2.053 2.051-3.611 4.432-5.453 6.629l12.47 9.91c1.461-1.727 2.68-3.609 4.297-5.227C390.5 184.3 410.6 176 432 176s41.45 8.328 56.56 23.44c3.125 3.125 8.188 3.125 11.31 0s3.125-8.188 0-11.31C481.8 169.1 457.6 160 432 160S382.3 169.1 364.1 188.1zM142.1 206.5C133.1 221.4 128 238.2 128 256c0 25.64 9.984 49.75 28.12 67.88C174.3 342 198.4 352 224 352c25.17 0 48.79-9.727 66.79-27.23L278 314.6C263.2 328.3 244.3 336 224 336c-21.36 0-41.45-8.328-56.56-23.44S144 277.4 144 256c0-14.09 3.939-27.46 10.74-39.38L142.1 206.5zM636.1 497.7L12.99 1.73C11.53 .5664 9.771 0 8.025 0C5.674 0 3.336 1.029 1.738 3.012c-2.75 3.469-2.172 8.5 1.281 11.25l623.1 496C628.5 511.4 630.2 512 631.1 512c2.344 0 4.688-1.031 6.266-3.016C641 505.5 640.4 500.5 636.1 497.7z"/></svg>

<svg xmlns="http://www.w3.org/2000/svg" viewBox="0 0 640 512"><!-- Font Awesome Pro 6.0.0-alpha2 by @fontawesome - https://fontawesome.com License - https://fontawesome.com/license (Commercial License) --><path d="M543.999 48C570.466 48 591.999 69.533 591.999 96V380.223L607.999 392.941V96C607.999 60.652 579.347 32 543.999 32H153.919L174.048 48H543.999ZM95.999 464C69.533 464 47.999 442.467 47.999 416V131.771L31.999 119.053V416C31.999 451.346 60.654 480 95.999 480H486.083L465.956 464H95.999ZM364.124 188.125C362.072 190.176 360.513 192.557 358.671 194.754L371.14 204.664C372.601 202.937 373.82 201.055 375.437 199.437C390.546 184.328 410.64 176 431.999 176S473.452 184.328 488.562 199.438C491.687 202.562 496.749 202.562 499.874 199.438S502.999 191.25 499.874 188.125C481.749 169.984 457.64 160 431.999 160S382.249 169.984 364.124 188.125ZM142.06 206.539C133.083 221.352 127.999 238.236 127.999 256C127.999 281.641 137.984 305.75 156.124 323.875C174.249 342.016 198.359 352 223.999 352C249.167 352 272.784 342.273 290.792 324.766L278.044 314.633C263.236 328.295 244.257 336 223.999 336C202.64 336 182.546 327.672 167.437 312.562S143.999 277.359 143.999 256C143.999 241.914 147.939 228.537 154.74 216.617L142.06 206.539ZM636.98 497.734L12.988 1.73C11.525 0.566 9.771 0 8.025 0C5.673 0 3.335 1.029 1.738 3.012C-1.012 6.48 -0.434 11.512 3.019 14.262L627.011 510.266C628.495 511.438 630.245 512 631.995 512C634.339 512 636.683 510.969 638.261 508.984C641.011 505.516 640.433 500.484 636.98 497.734Z"/></svg>
